X: 1
T:Countess of Sutherland's Strathspey, The
M:C|
L:1/8
C: Miss Magdelina Stirling's Collection
Z: source from Highland Music Trust, chords by Gary Whaley
K:A
C[|"A"A,>CE>C A>CE>C|A,>CE>C "E"FB,B,C|"A"A,>CE>C A>CE>C|"A"E>e"E"c>B "A"cAAC|
"A"A,>CE>C A>CE>C|A,>EC>E "E"FB,B,C|"A"A,>CE>C A>CE>C|A,>dTc>B "E"cA"A"A c/d/||
|"A"e<ATc<A e<ATc<A|"D"fBdB fBd<f|"A"e<ATc<A e<ATc<A|c/d/e"E"B>d "A"cAAc/d/|
"A"e>Ac>A e>Ac>e|"D"f>Bd>B f>Bd>f|"A"c<e"E"B<d "D"A<dc>B|A<F"E"TE>D "A"CA,A,|]